Newaita-dark/.DP/32/teamviewer-indicator-away.svg

<svg xmlns="http://www.w3.org/2000/svg" xmlns:xlink="http://www.w3.org/1999/xlink" width="32px" height="32px" viewBox="0 0 32 32" version="1.1">
<g id="surface1">
<path style=" stroke:none;fill-rule:nonzero;fill:rgb(93.333334%,93.333334%,93.333334%);fill-opacity:1;" d="M 15.878906 4.21875 C 9.277344 4.21875 3.96875 9.527344 3.96875 16.128906 C 3.96875 22.722656 9.277344 28.035156 15.878906 28.035156 C 17.859375 28.035156 19.722656 27.554688 21.363281 26.703125 L 21.167969 26.703125 L 21.175781 26.703125 C 20.082031 26.71875 19.171875 25.824219 19.171875 24.726562 C 19.171875 23.628906 20.082031 22.730469 21.175781 22.746094 L 21.167969 22.746094 L 23.929688 22.746094 C 23.777344 22.335938 23.761719 21.871094 23.910156 21.4375 C 24.175781 20.644531 24.925781 20.097656 25.761719 20.089844 C 26.199219 20.085938 26.621094 20.222656 26.96875 20.484375 C 27.496094 19.136719 27.785156 17.667969 27.785156 16.128906 C 27.785156 9.527344 22.472656 4.21875 15.878906 4.21875 Z M 19.167969 11.488281 C 19.527344 11.488281 19.867188 11.632812 20.113281 11.886719 L 23.421875 15.195312 C 23.9375 15.710938 23.9375 16.542969 23.421875 17.058594 L 20.113281 20.363281 C 19.785156 20.707031 19.296875 20.839844 18.835938 20.71875 C 18.378906 20.597656 18.019531 20.238281 17.898438 19.78125 C 17.777344 19.324219 17.914062 18.832031 18.253906 18.503906 L 19.316406 17.4375 C 19.273438 17.441406 19.230469 17.441406 19.183594 17.441406 L 12.441406 17.441406 L 13.5 18.503906 C 13.839844 18.832031 13.976562 19.324219 13.855469 19.78125 C 13.734375 20.238281 13.375 20.597656 12.917969 20.71875 C 12.457031 20.839844 11.96875 20.707031 11.636719 20.363281 L 8.332031 17.058594 C 7.816406 16.542969 7.816406 15.710938 8.332031 15.195312 L 11.636719 11.886719 C 11.878906 11.644531 12.199219 11.5 12.542969 11.488281 C 13.085938 11.472656 13.582031 11.792969 13.792969 12.292969 C 14.007812 12.792969 13.890625 13.371094 13.5 13.75 L 12.441406 14.808594 L 19.183594 14.808594 C 19.230469 14.808594 19.273438 14.8125 19.320312 14.816406 L 18.253906 13.75 C 17.871094 13.378906 17.75 12.808594 17.949219 12.308594 C 18.152344 11.816406 18.636719 11.488281 19.167969 11.488281 Z M 20.511719 16.011719 C 20.519531 16.089844 20.519531 16.164062 20.515625 16.242188 L 20.628906 16.128906 Z M 25.777344 21.414062 C 25.496094 21.417969 25.253906 21.59375 25.164062 21.859375 C 25.074219 22.125 25.160156 22.414062 25.382812 22.585938 C 25.386719 22.589844 25.386719 22.589844 25.390625 22.589844 L 25.714844 22.851562 C 25.964844 22.488281 26.191406 22.113281 26.398438 21.722656 L 26.207031 21.566406 C 26.207031 21.566406 26.203125 21.566406 26.199219 21.5625 C 26.082031 21.464844 25.933594 21.410156 25.777344 21.414062 Z M 21.160156 24.070312 C 20.785156 24.066406 20.496094 24.351562 20.496094 24.726562 C 20.496094 25.101562 20.785156 25.386719 21.160156 25.382812 C 21.160156 25.382812 21.167969 25.382812 21.167969 25.382812 L 23.386719 25.382812 C 23.878906 24.980469 24.339844 24.542969 24.761719 24.070312 L 21.167969 24.070312 C 21.167969 24.070312 21.160156 24.070312 21.160156 24.070312 Z M 21.160156 24.070312 "/>
<path style=" stroke:none;fill-rule:nonzero;fill:rgb(93.333334%,93.333334%,93.333334%);fill-opacity:1;" d="M 25.769531 20.753906 C 25.210938 20.757812 24.714844 21.117188 24.535156 21.648438 C 24.359375 22.179688 24.535156 22.765625 24.976562 23.109375 L 25.355469 23.410156 L 21.167969 23.410156 C 20.691406 23.402344 20.253906 23.652344 20.011719 24.0625 C 19.773438 24.472656 19.773438 24.980469 20.011719 25.390625 C 20.253906 25.800781 20.691406 26.050781 21.167969 26.042969 L 25.355469 26.042969 L 24.976562 26.34375 C 24.601562 26.636719 24.410156 27.105469 24.480469 27.574219 C 24.550781 28.046875 24.867188 28.441406 25.308594 28.613281 C 25.753906 28.785156 26.253906 28.703125 26.621094 28.402344 L 29.929688 25.753906 C 30.242188 25.503906 30.425781 25.125 30.425781 24.726562 C 30.425781 24.324219 30.242188 23.949219 29.929688 23.699219 L 26.621094 21.050781 C 26.382812 20.855469 26.082031 20.746094 25.769531 20.753906 Z M 25.769531 20.753906 "/>
</g>
</svg>

<svg xmlns="http://www.w3.org/2000/svg" width="32pt" height="32pt" viewBox="0 0 32 32"><g fill="#bdbdbd"><path d="M15.875 4.219A11.883 11.883 0 0 0 3.969 16.125c0 6.598 5.312 11.91 11.906 11.91 1.984 0 3.852-.48 5.492-1.332h-.199.012a1.988 1.988 0 0 1-2.008-1.976c0-1.094.91-1.993 2.008-1.977h-.012 2.762a1.964 1.964 0 0 1-.02-1.313 1.987 1.987 0 0 1 1.852-1.347 1.97 1.97 0 0 1 1.207.394c.527-1.347.816-2.82.816-4.359a11.884 11.884 0 0 0-11.91-11.906zm3.297 7.27c.355 0 .695.144.941.398l3.309 3.308a1.316 1.316 0 0 1 0 1.864l-3.309 3.308a1.31 1.31 0 0 1-1.277.352 1.316 1.316 0 0 1-.582-2.215l1.062-1.067c-.043.004-.086.008-.132.004H12.44l1.059 1.063a1.317 1.317 0 1 1-1.863 1.863L8.332 17.06a1.316 1.316 0 0 1 0-1.864l3.305-3.308a1.32 1.32 0 0 1 2.16.406c.21.5.094 1.078-.297 1.457l-1.059 1.059h6.743c.046 0 .09.004.136.007l-1.066-1.066a1.315 1.315 0 0 1 .918-2.262zm1.34 4.523c.008.074.008.152.004.23l.113-.117zm5.265 5.402a.646.646 0 0 0-.613.445.65.65 0 0 0 .219.727l.008.008.324.258c.25-.364.476-.739.683-1.133l-.191-.153-.004-.003a.65.65 0 0 0-.426-.149zM21.16 24.07a.648.648 0 0 0-.668.657c0 .375.293.66.668.656h2.227c.492-.403.953-.84 1.375-1.313H21.16zm0 0"/><path d="M25.77 20.75a1.324 1.324 0 0 0-1.235.898c-.176.532 0 1.118.442 1.461l.375.301h-4.184a1.316 1.316 0 1 0 0 2.633h4.184l-.375.3a1.327 1.327 0 0 0-.497 1.235 1.319 1.319 0 0 0 2.141.824l3.309-2.648a1.315 1.315 0 0 0 0-2.055l-3.309-2.648a1.34 1.34 0 0 0-.851-.301zm0 0"/></g></svg>
